X: 800
P: Longways for as many as will
M: C|
L: 1/8
K: F
[|\
f2g2 a2ga | bagf e2c2 | d2B2 G2c2 | A2F2 c4 |\
f2g2 a2ga | bagf e2c2 | d2B2 G2c2 | A2 F6 |]
[|\
a2gf g2fe | defg e2c2 | dcBA G2c2 | A2 F6 |]

